X:18
T:The Obscured View
M:4/4
L:1/8
R:Reel
C:Gris Sanderson
Q:450
N:I wrote this tune after visiting the family home after some 
N:years. There used to be a wonderful view from my old room 
N:of the Ochils stretching towards the West with the Wallace 
N:Monument and Stirling Castle silouetted at sunset in the 
N:distance. However, I was disappointed on this occasion to 
N:find that lovely vista obscured by a new block of flats. Oh 
N:well! This tune is on the Spyka album.
K:Emix
Bcd2dcBA|BEBdc2AF|D3F ADBD|=cBAc dcAc|
Bcd2dcBA|BEBde3B|d2Bd ADFA|BDDc DDdc:|
|:Aeee dAef|eedB ADFA|BEEe- eAfA|=gfed edB=G|
|1Aeee ede=g|eedB BA=GB|d2Bd ADFA|BDD cDD dc:|
|2Aa-a=g- gdeg|aedB- BA=GB|d2Bd ADFA|BFAFE2dc||
